svg/alphanum/r-square.svg

<svg width="448" height="512" viewBox="0 0 448 512" version="1.1" xmlns="http://www.w3.org/2000/svg"><path fill="currentColor" d="M400,480l-352,0c-26.51,0 -48,-21.49 -48,-48l0,-352c0,-26.51 21.49,-48 48,-48l352,0c26.51,0 48,21.49 48,48l0,352c0,26.51 -21.489,47.999 -48,48Zm-146.256,-352l-126.564,0c-4.104,0 -7.659,1.572 -10.667,4.717c-3.009,3.144 -4.513,6.932 -4.513,11.363l0,223.92c0,4.431 1.504,8.138 4.513,11.283c3.008,3.145 6.564,4.717 10.667,4.717l32.82,0c4.239,0 7.863,-1.572 10.872,-4.717c3.008,-3.145 5.128,-6.852 5.128,-11.283l0,-79.946l72,0c6.838,0 12.65,2.966 17.436,8.898c4.786,5.932 7.179,13.115 7.179,21.548l0,49.5c0,4.431 1.505,8.138 4.513,11.283c3.009,3.145 6.633,4.717 10.872,4.717l32.82,0c4.103,0 7.659,-1.572 10.667,-4.717c3.009,-3.145 4.513,-6.852 4.513,-11.283l0,-59.256c0,-12.436 -1.675,-22.441 -5.026,-30.017c-3.35,-7.576 -8.649,-15.151 -15.897,-22.727c13.949,-14.58 20.923,-32.161 20.923,-52.744c0,-20.726 -7.111,-38.45 -21.333,-53.172c-14.223,-14.723 -40.82,-22.084 -60.923,-22.084Zm-7.744,48c14.359,0 26,11.641 26,26l0,12c0,14.359 -11.641,26 -26,26l-70,0l0,-64l70,0Z"></path></svg>

<svg width="448" height="512" viewBox="0 0 448 512" fill="none" xmlns="http://www.w3.org/2000/svg">
<path d="M176 176H246C260.359 176 272 187.641 272 202V214C272 228.359 260.359 240 246 240H176V176Z" fill="black"/>
<path fill-rule="evenodd" clip-rule="evenodd" d="M48 32C21.4903 32 0 53.4903 0 80V432C0 458.51 21.4903 480 48 480H400C426.51 480 448 458.51 448 432V80C448 53.4903 426.51 32 400 32H48ZM176 368V288.054H248C254.838 288.054 260.65 291.02 265.436 296.952C270.222 302.884 272.615 310.067 272.615 318.5V368C272.615 372.431 274.12 376.138 277.128 379.283C280.137 382.428 283.761 384 288 384H320.82C324.923 384 328.479 382.428 331.487 379.283C334.496 376.138 336 372.431 336 368V308.744C336 296.308 334.325 286.303 330.974 278.727C327.624 271.151 322.325 263.576 315.077 256C329.026 241.42 336 223.839 336 203.256C336 182.53 328.889 164.806 314.667 150.084C300.444 135.361 273.846 128 253.744 128H127.18C123.077 128 119.521 129.572 116.513 132.717C113.504 135.861 112 139.649 112 144.08V368C112 372.431 113.504 376.138 116.513 379.283C119.521 382.428 123.077 384 127.18 384H160C164.239 384 167.863 382.428 170.872 379.283C173.88 376.138 176 372.431 176 368Z" fill="black"/>
</svg>
